src/com/lilithsthrone/res/clothing/hand_elbowlength_gloves.svg

<?xml version="1.0" encoding="UTF-8" standalone="no"?>
<!-- Created with Inkscape (http://www.inkscape.org/) -->

<svg
   xmlns:dc="http://purl.org/dc/elements/1.1/"
   xmlns:cc="http://creativecommons.org/ns#"
   xmlns:rdf="http://www.w3.org/1999/02/22-rdf-syntax-ns#"
   xmlns:svg="http://www.w3.org/2000/svg"
   xmlns="http://www.w3.org/2000/svg"
   xmlns:xlink="http://www.w3.org/1999/xlink"
   xmlns:sodipodi="http://sodipodi.sourceforge.net/DTD/sodipodi-0.dtd"
   xmlns:inkscape="http://www.inkscape.org/namespaces/inkscape"
   viewBox="0 0 256 256"
   id="svg4164"
   version="1.1"
   inkscape:version="0.91 r13725"
   sodipodi:docname="hand_elbowlength_gloves.svg">
  <style
     id="style3">
    svg { cursor: default;}
  </style>
  <defs
     id="defs4166">
    <linearGradient
       inkscape:collect="always"
       id="linearGradient0">
      <stop
         style="stop-color:#ff5555;stop-opacity:1"
         offset="0"
         id="stop4686" />
      <stop
         style="stop-color:#ff8080;stop-opacity:1"
         offset="1"
         id="stop4688" />
    </linearGradient>
    <inkscape:path-effect
       effect="powerstroke"
       id="path-effect4255"
       is_visible="true"
       offset_points="0.088828796,0.39810203"
       sort_points="true"
       interpolator_type="Linear"
       interpolator_beta="0.2"
       start_linecap_type="zerowidth"
       linejoin_type="round"
       miter_limit="4"
       end_linecap_type="zerowidth"
       cusp_linecap_type="round" />
    <inkscape:path-effect
       effect="powerstroke"
       id="path-effect4203"
       is_visible="true"
       offset_points="0.81276062,-1.286815"
       sort_points="true"
       interpolator_type="Linear"
       interpolator_beta="0.2"
       start_linecap_type="zerowidth"
       linejoin_type="round"
       miter_limit="4"
       end_linecap_type="zerowidth"
       cusp_linecap_type="round" />
    <inkscape:path-effect
       effect="powerstroke"
       id="path-effect4199"
       is_visible="true"
       offset_points="0.28308433,1.1604326"
       sort_points="true"
       interpolator_type="Linear"
       interpolator_beta="0.2"
       start_linecap_type="zerowidth"
       linejoin_type="round"
       miter_limit="4"
       end_linecap_type="zerowidth"
       cusp_linecap_type="round" />
    <marker
       inkscape:stockid="Arrow1Lstart"
       orient="auto"
       refY="0.0"
       refX="0.0"
       id="Arrow1Lstart"
       style="overflow:visible"
       inkscape:isstock="true">
      <path
         id="path4233"
         d="M 0.0,0.0 L 5.0,-5.0 L -12.5,0.0 L 5.0,5.0 L 0.0,0.0 z "
         style="fill-rule:evenodd;stroke:#000000;stroke-width:1pt;stroke-opacity:1;fill:#000000;fill-opacity:1"
         transform="scale(0.8) translate(12.5,0)" />
    </marker>
    <inkscape:path-effect
       effect="powerstroke"
       id="path-effect4203-4"
       is_visible="true"
       offset_points="0.45408377,-0.95413935"
       sort_points="true"
       interpolator_type="Linear"
       interpolator_beta="0.2"
       start_linecap_type="zerowidth"
       linejoin_type="round"
       miter_limit="4"
       end_linecap_type="zerowidth"
       cusp_linecap_type="round" />
    <inkscape:path-effect
       effect="powerstroke"
       id="path-effect4199-7"
       is_visible="true"
       offset_points="0.88158867,1.1916301"
       sort_points="true"
       interpolator_type="Linear"
       interpolator_beta="0.2"
       start_linecap_type="zerowidth"
       linejoin_type="round"
       miter_limit="4"
       end_linecap_type="zerowidth"
       cusp_linecap_type="round" />
    <linearGradient
       gradientTransform="translate(-0.05806371,-796.35512)"
       inkscape:collect="always"
       xlink:href="#linearGradient0"
       id="linearGradient1-5"
       x1="159.64287"
       y1="946.29077"
       x2="207.85715"
       y2="927.71936"
       gradientUnits="userSpaceOnUse" />
  </defs>
  <sodipodi:namedview
     id="base"
     pagecolor="#ffffff"
     bordercolor="#666666"
     borderopacity="1.0"
     inkscape:pageopacity="0.0"
     inkscape:pageshadow="2"
     inkscape:zoom="0.49497475"
     inkscape:cx="-871.18875"
     inkscape:cy="-502.94112"
     inkscape:document-units="px"
     inkscape:current-layer="layer3"
     showgrid="false"
     units="px"
     inkscape:window-width="1895"
     inkscape:window-height="1134"
     inkscape:window-x="25"
     inkscape:window-y="0"
     inkscape:window-maximized="1" />
  <metadata
     id="metadata4169">
    <rdf:RDF>
      <cc:Work
         rdf:about="">
        <dc:format>image/svg+xml</dc:format>
        <dc:type
           rdf:resource="http://purl.org/dc/dcmitype/StillImage" />
        <dc:title />
      </cc:Work>
    </rdf:RDF>
  </metadata>
  <g
     inkscape:groupmode="layer"
     id="layer2"
     inkscape:label="Layer 2"
     style="display:none" />
  <g
     inkscape:groupmode="layer"
     id="layer3"
     inkscape:label="patternLayer"
     style="display:inline">
    <path
       style="display:inline;fill:url(#linearGradient1-5);fill-opacity:1;fill-rule:evenodd;stroke:#000000;stroke-width:1px;stroke-linecap:butt;stroke-linejoin:miter;stroke-opacity:1"
       d="M 134.08398 10.845703 C 132.26314 10.680578 131.14315 12.622017 131.72852 14.132812 C 133.12733 19.311383 133.72582 23.655122 135.38867 29.757812 C 136.40779 33.498023 138.11431 37.114736 139.51953 40.785156 C 139.51953 40.785156 138.32591 42.327988 137.27344 41.205078 C 134.11671 33.522558 130.90849 26.811023 127.44141 18.507812 C 125.67108 16.891413 122.57894 17.518193 123.14648 20.945312 C 123.14648 20.945312 124.61121 28.599509 126.19141 32.792969 C 127.6193 36.582229 129.45798 40.094641 130.93945 43.863281 C 133.12248 49.416551 136.90625 60.828125 136.90625 60.828125 C 129.7898 56.272435 122.22412 48.709398 119.53516 48.298828 C 117.95685 48.226598 114.41502 50.283768 116.05664 52.330078 C 126.99912 62.633828 133.79377 74.784103 148.15625 82.970703 C 159.34672 101.51237 161.78369 107.61515 170.83398 141.7207 C 174.17772 154.32139 176.07406 164.78699 182.38086 183.05469 C 186.66459 195.46255 201.80736 221.31623 208.10352 241.07812 C 208.10352 241.07812 208.88549 245.66619 209.04883 246.90039 C 221.21262 245.30139 230.75301 241.31518 239.22852 236.36328 C 231.72852 219.75618 220.49395 198.47348 216.72852 186.54297 C 211.51144 170.01301 207.43679 157.53425 198.29102 138.15039 C 189.72268 119.99036 182.52269 107.52733 174.07031 86.791016 C 172.09111 81.935416 167.53029 67.687521 167.62109 56.900391 C 167.67346 50.680571 166.22444 45.660159 164.32227 40.943359 C 162.17897 30.479639 160.08163 19.613695 157.57617 18.328125 C 156.07792 18.027975 154.28728 19.742399 155.03125 21.230469 C 156.50376 27.238049 157.09351 33.274511 157.97852 39.400391 C 157.68389 40.491441 155.80154 39.553957 155.38867 38.685547 C 152.33573 29.761677 150.73389 21.287513 146.72852 12.257812 C 145.65221 10.108982 141.43211 10.427195 141.90625 13.328125 C 141.90625 13.328125 144.66873 22.431165 145.65625 27.078125 C 146.35245 30.354245 147.92888 36.945312 148.02148 36.945312 C 147.86825 37.948543 147.05257 38.726137 146.37109 37.435547 C 146.37109 37.435547 144.00286 30.225431 142.66602 26.675781 C 140.88077 21.935471 136.90625 12.613281 136.90625 12.613281 C 135.8835 11.429697 134.91164 10.92076 134.08398 10.845703 z M 60.279297 20.941406 C 58.82208 20.827685 57.68058 22.273357 57.751953 23.919922 C 61.895748 31.906967 64.984691 38.674652 68.851562 46.025391 C 69.037491 47.553158 67.087891 47.478516 67.087891 47.478516 C 65.174388 44.045568 63.496026 40.414017 61.28125 37.232422 C 57.667531 32.041187 54.720836 28.79614 51.646484 24.400391 C 50.507342 22.337286 46.353273 22.456015 47.158203 27.396484 C 47.158203 27.396484 51.759752 36.426959 54.25 40.837891 C 56.114751 44.140899 60.123047 50.583984 60.123047 50.583984 C 60.675639 51.934791 59.555289 52.061361 58.6875 51.535156 C 58.74692 51.464136 54.7047 46.026756 52.638672 43.390625 C 49.708151 39.651443 44.498047 31.691406 44.498047 31.691406 C 42.577299 29.466337 39.624524 32.496837 40.582031 34.701172 C 44.937638 43.567239 50.411303 50.235077 55.296875 58.302734 C 55.698015 59.176624 55.207523 61.220198 54.181641 60.746094 C 50.051027 56.136574 45.799623 51.812344 42.136719 46.828125 C 41.472759 45.302674 39.01045 45.576236 38.279297 46.917969 C 37.657665 49.664529 44.646574 58.245486 51.296875 66.603516 C 53.694068 71.089039 56.613825 75.420257 61.417969 79.371094 C 69.749852 86.223111 77.7489 98.864377 80.203125 103.49805 C 90.684121 123.28658 95.624076 136.80687 104.05469 155.03125 C 113.05345 174.48379 120.01107 185.61462 129.3418 200.22266 C 136.07626 210.76603 145.19216 233.03875 153.11719 249.44727 C 162.35364 246.12407 171.53107 241.36599 180.5625 233.0625 C 179.72069 232.14528 176.70312 228.60156 176.70312 228.60156 C 165.58594 211.09206 155.47309 182.88782 148.70508 171.64062 C 138.74075 155.08175 131.93118 146.91363 124.41211 136.26367 C 104.0607 107.43805 100.94315 101.65229 93.902344 81.171875 C 96.839126 64.902983 91.881532 51.894892 91 36.890625 C 90.483861 34.318485 86.631165 35.713809 85.673828 36.970703 C 84.263335 39.296555 85.210838 49.952539 84.138672 58.333984 C 84.138672 58.333984 77.81362 48.110715 74.955078 42.873047 C 73.015168 39.318592 71.499872 35.653544 69.509766 32.126953 C 67.307374 28.224184 62.376953 22.189453 62.376953 22.189453 C 61.669328 21.366222 60.941668 20.993098 60.279297 20.941406 z "
       id="path4680-3" />
  </g>
  <g
     inkscape:label="Layer 1"
     inkscape:groupmode="layer"
     id="layer1"
     transform="translate(0,-796.36219)"
     style="display:inline">
    <g
       id="g4692"
       style="fill:none">
      <path
         sodipodi:nodetypes="ccssccccssccccsccsccscccccccsssscc"
         inkscape:connector-curvature="0"
         id="path4680"
         d="m 209.10714,1043.2551 c -0.16334,-1.2342 -0.94516,-5.8226 -0.94516,-5.8226 -6.29616,-19.7619 -21.43953,-45.61523 -25.72326,-58.02309 -6.3068,-18.2677 -8.20213,-28.73224 -11.54587,-41.33293 -9.05029,-34.10555 -11.48809,-40.20833 -22.67856,-58.75 -14.36249,-8.1866 -21.15706,-20.33657 -32.09954,-30.64032 -1.64162,-2.04631 1.89936,-4.10541 3.47767,-4.03318 2.68896,0.41057 10.25542,7.97495 17.37187,12.53064 0,0 -3.7838,-11.41102 -5.96683,-16.96429 -1.48147,-3.76864 -3.31957,-7.28217 -4.74746,-11.07143 -1.5802,-4.19346 -3.04469,-11.84699 -3.04469,-11.84699 -0.56754,-3.42712 2.52436,-4.05512 4.29469,-2.43872 3.46708,8.30321 6.67553,15.01586 9.83226,22.69838 1.05248,1.12291 2.24561,-0.42028 2.24561,-0.42028 -1.40522,-3.67042 -3.11232,-7.28789 -4.13144,-11.0281 -1.66285,-6.10269 -2.26191,-10.44643 -3.66072,-15.625 -0.85144,-2.19752 1.90578,-5.30533 5.17858,-1.51786 0,0 3.97367,9.32219 5.75892,14.0625 1.33684,3.54965 3.70536,10.75893 3.70536,10.75893 0.68148,1.29059 1.49856,0.51216 1.65179,-0.49107 -0.0926,0 -1.66987,-6.58995 -2.36607,-9.86607 -0.98752,-4.64696 -3.75,-13.75 -3.75,-13.75 -0.47414,-2.90093 3.74511,-3.22026 4.82142,-1.07143 4.00537,9.0297 5.60778,17.5047 8.66072,26.42857 0.41287,0.86841 2.29465,1.80534 2.58928,0.71429 -0.88501,-6.12588 -1.47391,-12.16207 -2.94642,-18.16965 -0.74397,-1.48807 1.04639,-3.20194 2.54464,-2.90179 2.50546,1.28557 4.60226,12.15173 6.74556,22.61545 1.90217,4.7168 3.35145,9.73617 3.29908,15.95599 -0.0908,10.78713 4.47104,25.03454 6.45024,29.89014 8.45238,20.73631 15.65238,33.19983 24.22072,51.35986 9.14577,19.38386 13.2191,31.86289 18.43618,48.39285 3.76543,11.93051 15,33.2143 22.5,49.8214 -8.47551,4.9519 -18.01478,8.9368 -30.17857,10.5358 z"
         style="fill:none;fill-opacity:1;fill-rule:evenodd;stroke:#000000;stroke-width:1px;stroke-linecap:butt;stroke-linejoin:miter;stroke-opacity:1" />
      <path
         sodipodi:nodetypes="cc"
         inkscape:connector-curvature="0"
         id="path4682"
         d="m 148.36616,879.2473 c -3.77451,-4.91237 -11.30299,-13.2934 -11.30108,-22.03395"
         style="fill:none;fill-rule:evenodd;stroke:#000000;stroke-width:0.5;stroke-linecap:butt;stroke-linejoin:miter;stroke-miterlimit:4;stroke-dasharray:none;stroke-opacity:1" />
    </g>
    <g
       transform="matrix(-0.64165906,0.76698999,0.76698999,0.64165906,-485.37027,199.61976)"
       style="display:inline;fill:none"
       id="g4692-4">
      <path
         sodipodi:nodetypes="ccssccccssccccsccsccscccccccsssscc"
         inkscape:connector-curvature="0"
         id="path4680-7"
         d="m 209.10714,1043.2551 c -0.16334,-1.2342 -0.94516,-5.8226 -0.94516,-5.8226 -6.29616,-19.7619 -21.43953,-45.61523 -25.72326,-58.02309 -6.3068,-18.2677 -8.20213,-28.73224 -11.54587,-41.33293 -9.05029,-34.10555 -11.48809,-40.20833 -22.67856,-58.75 -14.36249,-8.1866 -21.15706,-20.33657 -32.09954,-30.64032 -1.64162,-2.04631 1.89936,-4.10541 3.47767,-4.03318 2.68896,0.41057 10.25542,7.97495 17.37187,12.53064 0,0 -3.7838,-11.41102 -5.96683,-16.96429 -1.48147,-3.76864 -3.31957,-7.28217 -4.74746,-11.07143 -1.5802,-4.19346 -3.04469,-11.84699 -3.04469,-11.84699 -0.56754,-3.42712 2.52436,-4.05512 4.29469,-2.43872 3.46708,8.30321 6.67553,15.01586 9.83226,22.69838 1.05248,1.12291 2.24561,-0.42028 2.24561,-0.42028 -1.40522,-3.67042 -3.11232,-7.28789 -4.13144,-11.0281 -1.66285,-6.10269 -2.26191,-10.44643 -3.66072,-15.625 -0.85144,-2.19752 1.90578,-5.30533 5.17858,-1.51786 0,0 3.97367,9.32219 5.75892,14.0625 1.33684,3.54965 3.70536,10.75893 3.70536,10.75893 0.68148,1.29059 1.49856,0.51216 1.65179,-0.49107 -0.0926,0 -1.66987,-6.58995 -2.36607,-9.86607 -0.98752,-4.64696 -3.75,-13.75 -3.75,-13.75 -0.47414,-2.90093 3.74511,-3.22026 4.82142,-1.07143 4.00537,9.0297 5.60778,17.5047 8.66072,26.42857 0.41287,0.86841 2.29465,1.80534 2.58928,0.71429 -0.88501,-6.12588 -1.47391,-12.16207 -2.94642,-18.16965 -0.74397,-1.48807 1.04639,-3.20194 2.54464,-2.90179 2.50546,1.28557 4.60226,12.15173 6.74556,22.61545 1.90217,4.7168 3.35145,9.73617 3.29908,15.95599 -0.0908,10.78713 4.47104,25.03454 6.45024,29.89014 8.45238,20.73631 15.65238,33.19983 24.22072,51.35986 9.14577,19.38386 13.2191,31.86289 18.43618,48.39285 3.76543,11.93051 15,33.2143 22.5,49.8214 -8.47551,4.9519 -18.01478,8.9368 -30.17857,10.5358 z"
         style="fill:none;fill-opacity:1;fill-rule:evenodd;stroke:#000000;stroke-width:1px;stroke-linecap:butt;stroke-linejoin:miter;stroke-opacity:1" />
      <path
         sodipodi:nodetypes="cc"
         inkscape:connector-curvature="0"
         id="path4682-0"
         d="m 148.36616,879.2473 c -3.77451,-4.91237 -11.30299,-13.2934 -11.30108,-22.03395"
         style="fill:none;fill-rule:evenodd;stroke:#000000;stroke-width:0.5;stroke-linecap:butt;stroke-linejoin:miter;stroke-miterlimit:4;stroke-dasharray:none;stroke-opacity:1" />
    </g>
  </g>
</svg>

<svg xmlns="http://www.w3.org/2000/svg" xmlns:xlink="http://www.w3.org/1999/xlink" cursor="default" viewBox="0 0 256 256">
    <defs>
        <linearGradient id="linearGradient0">
            <stop offset="0" stop-color="#f55"/>
            <stop offset="1" stop-color="#ff8080"/>
        </linearGradient>
        <linearGradient id="linearGradient1-5" x1="159.643" x2="207.857" y1="946.291" y2="927.719" gradientTransform="translate(-.058 -796.355)" gradientUnits="userSpaceOnUse" xlink:href="#linearGradient0"/>
    </defs>
    <path fill="url(#linearGradient1-5)" fill-rule="evenodd" stroke="#000" d="M134.084 10.846c-1.82-.165-2.94 1.776-2.355 3.287 1.398 5.178 1.997 9.522 3.66 15.625 1.019 3.74 2.725 7.357 4.13 11.027 0 0-1.193 1.543-2.246.42-3.156-7.682-6.365-14.394-9.832-22.697-1.77-1.617-4.862-.99-4.295 2.437 0 0 1.465 7.655 3.045 11.848 1.428 3.79 3.267 7.302 4.748 11.07 2.183 5.554 5.967 16.965 5.967 16.965-7.116-4.556-14.682-12.119-17.37-12.53-1.58-.071-5.121 1.986-3.48 4.032 10.943 10.304 17.738 22.454 32.1 30.64 11.19 18.542 13.628 24.645 22.678 58.75 3.344 12.601 5.24 23.067 11.547 41.335 4.284 12.408 19.426 38.261 25.723 58.023 0 0 .781 4.588.945 5.822 12.164-1.599 21.704-5.585 30.18-10.537-7.5-16.607-18.735-37.89-22.5-49.82-5.218-16.53-9.292-29.009-18.438-48.393-8.568-18.16-15.768-30.623-24.22-51.359-1.98-4.856-6.54-19.103-6.45-29.89.052-6.22-1.397-11.24-3.299-15.958-2.143-10.463-4.24-21.33-6.746-22.615-1.498-.3-3.289 1.414-2.545 2.902 1.473 6.008 2.063 12.045 2.948 18.17-.295 1.091-2.177.154-2.59-.714-3.053-8.924-4.655-17.398-8.66-26.428-1.077-2.149-5.297-1.83-4.823 1.07 0 0 2.763 9.103 3.75 13.75.696 3.276 2.273 9.867 2.365 9.867-.153 1.004-.968 1.781-1.65.49 0 0-2.368-7.21-3.705-10.76-1.785-4.74-5.76-14.062-5.76-14.062-1.023-1.183-1.994-1.692-2.822-1.767zM60.279 20.94c-1.457-.113-2.598 1.332-2.527 2.979 4.144 7.987 7.233 14.755 11.1 22.105.185 1.528-1.764 1.454-1.764 1.454-1.914-3.433-3.592-7.065-5.807-10.247-3.613-5.19-6.56-8.436-9.635-12.832-1.139-2.063-5.293-1.944-4.488 2.996 0 0 4.602 9.031 7.092 13.442 1.865 3.303 5.873 9.746 5.873 9.746.553 1.35-.568 1.477-1.435.951.059-.07-3.983-5.508-6.05-8.144-2.93-3.74-8.14-11.7-8.14-11.7-1.92-2.225-4.873.806-3.916 3.01 4.356 8.866 9.83 15.534 14.715 23.602.401.874-.09 2.917-1.115 2.443-4.131-4.61-8.382-8.934-12.045-13.918-.664-1.525-3.127-1.252-3.858.09-.621 2.747 6.368 11.327 13.018 19.686 2.397 4.485 5.317 8.816 10.121 12.767 8.332 6.852 16.33 19.493 18.785 24.127 10.481 19.789 15.421 33.309 23.852 51.533 8.998 19.453 15.956 30.584 25.287 45.192 6.734 10.543 15.85 32.816 23.775 49.224 9.237-3.323 18.414-8.081 27.446-16.385-.842-.917-3.86-4.46-3.86-4.46-11.117-17.51-21.23-45.714-27.998-56.961-9.964-16.56-16.774-24.727-24.293-35.377-20.351-28.826-23.469-34.612-30.51-55.092C96.84 64.903 91.882 51.895 91 36.89c-.516-2.573-4.369-1.177-5.326.08-1.41 2.326-.463 12.982-1.535 21.363 0 0-6.325-10.223-9.184-15.461-1.94-3.554-3.455-7.22-5.445-10.746-2.203-3.903-7.133-9.938-7.133-9.938-.708-.823-1.435-1.196-2.098-1.248z"/>
    <g fill="none" stroke="#000">
        <path d="M209.107 246.893c-.163-1.234-.945-5.823-.945-5.823-6.296-19.762-21.44-45.615-25.723-58.023-6.307-18.267-8.202-28.732-11.546-41.333-9.05-34.105-11.488-40.208-22.679-58.75-14.362-8.186-21.157-20.336-32.1-30.64-1.64-2.046 1.9-4.105 3.478-4.033 2.69.41 10.256 7.975 17.372 12.53 0 0-3.784-11.41-5.967-16.964-1.481-3.768-3.32-7.282-4.747-11.071-1.58-4.194-3.045-11.847-3.045-11.847-.567-3.427 2.525-4.055 4.295-2.439 3.467 8.303 6.676 15.016 9.832 22.698 1.053 1.123 2.246-.42 2.246-.42-1.405-3.67-3.112-7.288-4.132-11.028-1.662-6.103-2.261-10.446-3.66-15.625-.852-2.198 1.905-5.305 5.178-1.518 0 0 3.974 9.322 5.76 14.063 1.336 3.55 3.705 10.759 3.705 10.759.681 1.29 1.498.512 1.651-.491-.092 0-1.67-6.59-2.366-9.867-.987-4.647-3.75-13.75-3.75-13.75-.474-2.9 3.745-3.22 4.822-1.071 4.005 9.03 5.607 17.505 8.66 26.429.413.868 2.295 1.805 2.59.714-.885-6.126-1.474-12.162-2.947-18.17-.744-1.488 1.047-3.202 2.545-2.902 2.505 1.286 4.602 12.152 6.745 22.616 1.903 4.717 3.352 9.736 3.3 15.956-.091 10.787 4.47 25.034 6.45 29.89 8.452 20.736 15.652 33.2 24.22 51.36 9.146 19.384 13.22 31.863 18.437 48.393 3.765 11.93 15 33.214 22.5 49.821-8.476 4.952-18.015 8.937-30.179 10.536z"/>
        <path stroke-width=".5" d="M148.366 82.885c-3.774-4.912-11.303-13.293-11.3-22.034"/>
        <g>
            <path d="M180.62 233.055c-.841-.917-3.859-4.461-3.859-4.461-11.117-17.51-21.23-45.714-27.998-56.96-9.964-16.56-16.774-24.728-24.293-35.378-20.351-28.826-23.468-34.611-30.509-55.092 2.937-16.269-2.022-29.276-2.904-44.28-.516-2.573-4.367-1.178-5.324.079-1.41 2.326-.464 12.983-1.536 21.364 0 0-6.325-10.224-9.183-15.461-1.94-3.555-3.455-7.22-5.446-10.746-2.202-3.902-7.132-9.937-7.132-9.937-2.265-2.634-4.73-.666-4.627 1.73 4.144 7.987 7.234 14.755 11.1 22.105.187 1.528-1.762 1.453-1.762 1.453-1.914-3.433-3.593-7.063-5.808-10.245-3.614-5.191-6.56-8.438-9.635-12.834-1.14-2.063-5.292-1.942-4.487 2.998 0 0 4.6 9.03 7.09 13.44 1.865 3.304 5.875 9.746 5.875 9.746.552 1.351-.57 1.478-1.437.952.06-.071-3.983-5.51-6.049-8.145-2.93-3.74-8.14-11.7-8.14-11.7-1.92-2.224-4.873.807-3.915 3.011 4.355 8.866 9.827 15.533 14.713 23.6.401.875-.088 2.92-1.114 2.445-4.13-4.61-8.382-8.934-12.045-13.918-.664-1.526-3.127-1.252-3.858.09-.622 2.746 6.367 11.326 13.017 19.685 2.397 4.485 5.317 8.817 10.121 12.768 8.332 6.852 16.333 19.493 18.787 24.127 10.48 19.788 15.42 33.308 23.851 51.532 8.999 19.453 15.956 30.584 25.287 45.192 6.735 10.544 15.85 32.817 23.775 49.226 9.237-3.323 18.414-8.083 27.445-16.386z"/>
            <path stroke-width=".5" d="M93.803 81.23c-1.346-6.047-2.943-17.2-9.648-22.806"/>
        </g>
    </g>
</svg>
